Simply-Green-Circles/scalable/apps/falkon.svg

<svg xmlns="http://www.w3.org/2000/svg" width="48" height="48" viewBox="0 0 12.7 12.7"><path d="M6.34.07a6.29 6.29 0 0 0-6.29 6.3 6.29 6.29 0 0 0 6.3 6.28 6.29 6.29 0 0 0 6.28-6.29A6.29 6.29 0 0 0 6.34.07zm-.01.94a5.4 5.4 0 0 1 5.4 5.4 5.4 5.4 0 0 1-1.83 4.05A7.77 7.77 0 0 1 9 9.43a4.74 4.74 0 0 1-.49-.84c-.13-.3-.2-.6-.2-.89a1.19 1.19 0 0 1 .32-.82c.11-.12.26-.24.45-.34.18-.1.4-.19.68-.26.53-.07 1.08-.1 1.67-.07a1.6 1.6 0 0 0-.19-.57c-.1-.18-.24-.36-.4-.52a2.66 2.66 0 0 0-.62-.44c-.24-.12-.5-.21-.8-.28-.1-.04-.44-.51-1.07-.97a4.75 4.75 0 0 0-3.87-.8c-.4.09-.83.22-1.29.4h.01a4.5 4.5 0 0 1 1.23-.05c.47.02.9.07 1 .1a.4.4 0 0 1-.14.24.58.58 0 0 1-.27.13 1.94 1.94 0 0 0-.64-.02 1.99 1.99 0 0 0-1.01.53c-.14.14-.26.3-.38.47-.22.34-.4.74-.54 1.15-.13.4-.23.82-.29 1.2.05-.17.17-.31.34-.44s.38-.24.63-.35c.5-.2 1.12-.35 1.73-.45a21 21 0 0 1 2.38-.27 8.8 8.8 0 0 0-3.65 1.1c-.28.17-.53.34-.73.5-.02 0-.03.02-.03.02-.05.1-.1.23-.17.34-.21.5-.36.95-.45 1.37-.1.42-.14.8-.14 1.14v.01A5.4 5.4 0 0 1 .92 6.42 5.4 5.4 0 0 1 6.32 1zm1.46 2.94a.9.9 0 0 1 .19 0c.13.03.27.1.38.22.12.13.2.32.24.62a1.2 1.2 0 0 1-.6-.08.89.89 0 0 1-.34-.27c-.16-.21-.2-.43-.2-.43s.14-.06.33-.06zm1.33 2.24c.49 0 .78.05.78.05a7.7 7.7 0 0 0-3.42.94 7.84 7.84 0 0 0-2.25 1.9 9.93 9.93 0 0 0-1.14 1.66 5.4 5.4 0 0 1-.72-.65A9.2 9.2 0 0 1 5 7.45a8.02 8.02 0 0 1 4.12-1.26z" fill="#2ca02c"/></svg>

<?xml version="1.0" encoding="UTF-8" standalone="no"?>
<svg
   xmlns:dc="http://purl.org/dc/elements/1.1/"
   xmlns:cc="http://creativecommons.org/ns#"
   xmlns:rdf="http://www.w3.org/1999/02/22-rdf-syntax-ns#"
   xmlns:svg="http://www.w3.org/2000/svg"
   xmlns="http://www.w3.org/2000/svg"
   xmlns:sodipodi="http://sodipodi.sourceforge.net/DTD/sodipodi-0.dtd"
   xmlns:inkscape="http://www.inkscape.org/namespaces/inkscape"
   width="48"
   height="48"
   viewBox="0 0 12.7 12.7"
   version="1.1"
   id="svg4"
   sodipodi:docname="falkon.svg"
   inkscape:version="0.92.4 (5da689c313, 2019-01-14)">
  <metadata
     id="metadata10">
    <rdf:RDF>
      <cc:Work
         rdf:about="">
        <dc:format>image/svg+xml</dc:format>
        <dc:type
           rdf:resource="http://purl.org/dc/dcmitype/StillImage" />
        <dc:title></dc:title>
      </cc:Work>
    </rdf:RDF>
  </metadata>
  <defs
     id="defs8" />
  <sodipodi:namedview
     pagecolor="#ffffff"
     bordercolor="#666666"
     borderopacity="1"
     objecttolerance="10"
     gridtolerance="10"
     guidetolerance="10"
     inkscape:pageopacity="0"
     inkscape:pageshadow="2"
     inkscape:window-width="1087"
     inkscape:window-height="480"
     id="namedview6"
     showgrid="false"
     inkscape:zoom="4.9166667"
     inkscape:cx="2.1355932"
     inkscape:cy="24"
     inkscape:window-x="0"
     inkscape:window-y="25"
     inkscape:window-maximized="0"
     inkscape:current-layer="svg4" />
  <path
     d="M 6.34,0.07 A 6.29,6.29 0 0 0 0.05,6.37 6.29,6.29 0 0 0 6.35,12.65 6.29,6.29 0 0 0 12.63,6.36 6.29,6.29 0 0 0 6.34,0.07 Z M 6.33,1.01 a 5.4,5.4 0 0 1 5.4,5.4 A 5.4,5.4 0 0 1 9.9,10.46 7.77,7.77 0 0 1 9,9.43 4.74,4.74 0 0 1 8.51,8.59 C 8.38,8.29 8.31,7.99 8.31,7.7 A 1.19,1.19 0 0 1 8.63,6.88 C 8.74,6.76 8.89,6.64 9.08,6.54 9.26,6.44 9.48,6.35 9.76,6.28 10.29,6.21 10.84,6.18 11.43,6.21 11.41,6.02 11.34,5.83 11.24,5.64 11.14,5.46 11,5.28 10.84,5.12 A 2.66,2.66 0 0 0 10.22,4.68 C 9.98,4.56 9.72,4.47 9.42,4.4 9.32,4.36 8.98,3.89 8.35,3.43 A 4.75,4.75 0 0 0 4.48,2.63 C 4.08,2.72 3.65,2.85 3.19,3.03 H 3.2 A 4.5,4.5 0 0 1 4.43,2.98 c 0.47,0.02 0.9,0.07 1,0.1 A 0.4,0.4 0 0 1 5.29,3.32 0.58,0.58 0 0 1 5.02,3.45 1.94,1.94 0 0 0 4.38,3.43 C 4.18,3.47 4,3.53 3.83,3.62 3.66,3.72 3.51,3.82 3.37,3.96 3.23,4.1 3.11,4.26 2.99,4.43 2.77,4.77 2.59,5.17 2.45,5.58 2.32,5.98 2.22,6.4 2.16,6.78 2.21,6.61 2.33,6.47 2.5,6.34 2.67,6.21 2.88,6.1 3.13,5.99 3.63,5.79 4.25,5.64 4.86,5.54 A 21,21 0 0 1 7.24,5.27 8.8,8.8 0 0 0 3.59,6.37 C 3.31,6.54 3.06,6.71 2.86,6.87 2.84,6.87 2.83,6.89 2.83,6.89 2.78,6.99 2.73,7.12 2.66,7.23 2.45,7.73 2.3,8.18 2.21,8.6 2.11,9.02 2.07,9.4 2.07,9.74 V 9.75 A 5.4,5.4 0 0 1 0.92,6.42 5.4,5.4 0 0 1 6.32,1 Z m 1.46,2.94 a 0.9,0.9 0 0 1 0.19,0 C 8.11,3.98 8.25,4.05 8.36,4.17 8.48,4.3 8.56,4.49 8.6,4.79 8.35,4.81 8.15,4.78 8,4.71 A 0.89,0.89 0 0 1 7.66,4.44 C 7.5,4.23 7.46,4.01 7.46,4.01 c 0,0 0.14,-0.06 0.33,-0.06 z m 1.33,2.24 c 0.49,0 0.78,0.05 0.78,0.05 A 7.7,7.7 0 0 0 6.48,7.18 7.84,7.84 0 0 0 4.23,9.08 9.93,9.93 0 0 0 3.09,10.74 5.4,5.4 0 0 1 2.37,10.09 9.2,9.2 0 0 1 5,7.45 8.02,8.02 0 0 1 9.12,6.19 Z"
     id="path2"
     inkscape:connector-curvature="0"
     style="fill:#2ca02c" />
</svg>
